X:1
T:The Bonnie Blue Flag
T:Harry Macarthey
%%score { ( 1 3 ) | 2 }
L:1/8
Q:1/4=225
M:6/8
K:F
V:1 treble nm="Piano" snm="Pno."
V:3 treble 
V:2 bass 
V:1
 c | fca fca | f3- f2 c | fed cde | fac' [eg]3 | fca fca | f3- f2 f | fed cde | f2 z [Af] z C |: %9
 A2 A A2 A | B B2 z z B | c2 c A2 F | G6 | f2 f e2 f | d2 c A2 F | A2 G F2 E | F3- F2 C | %17
 A2 A A2 A | BB z3 B | c2 c A2 F | G3- G2 c | [Af]2 [Af] [Ge]2 [Af] | [Bd]2 [Ac] [FA]2 F | %23
 [FA]2 [GB] [FA]2 [EG] | [A,F]6 |[M:1/8] [Ac] |[M:6/8] [Af]3- [Af]2 [Ac] | [Ge]3- [Ge]2 [Gc] | %28
 [Bd]2 [Bd] [Bd]2 [Bd] | [Ac]3- [Ac]2 [Ac] | [Af]3 [Ac]2 [Ac] | [Ge][Ge][Fd] [Ec]2 [DB] | %32
 [CA]2 [DB] [CA]2 [B,G] | [A,F]3- [A,F]2 c | fca fca | f3 f2 c | fed cde |1 fac' [eg]2 C :|2 %38
 fac' [eg]3 || fca fca | f3 f2 f' | f'e'd' c'd'e' | f'2 z2 [Af]2 |] %43
V:2
 z | [F,A,C]2 [F,A,C] [F,A,C]2 [F,A,C] | [F,A,C]3- [F,A,C]2 z | E,[G,B,][G,B,] E,[G,B,][G,B,] | %4
 F,[A,C][A,C] [C,C]3 | [F,A,C]2 [F,A,C] [F,A,C]2 [F,A,C] | [F,A,C]6 | %7
 E,[G,B,][G,B,] E,[G,B,][G,B,] | [F,A,]2 z [F,,C,F,] z2 |: [F,,F,]3 [F,,F,]3 | [G,,G,]6 | %11
 [G,,G,]3 [E,,E,]3 | [C,,C,]6 | [F,,F,]6 | [F,,F,]6 | C,3 C,,3 | F,,6 | [F,,F,]3 [F,,F,]3 | %18
 [G,,G,]6 | [A,,A,]3 [F,,F,]3 | z6 | [F,,F,]6 | [F,,F,]6 | C,3 C,3 | [F,,F,]6 |[M:1/8] z | %26
[M:6/8] [F,,F,]6 | [C,,C,]6 | B,,2 C, D,2 E, | F,6 | [F,,F,]6 | B,,3 B,,3 | C,3 C,3 | [F,,F,]6 | %34
 [F,A,C]2 [F,A,C] [F,A,C]2 [F,A,C] | [F,A,C]6 | E,[G,B,][G,B,] E,[G,B,][G,B,] |1 %37
 F,[A,C][A,C] [C,C]3 :|2 F,[A,C][A,C] [C,C]3 || [F,A,C]2 [F,A,C] [F,A,C]2 [F,A,C] | [F,A,C]6 | %41
 E,[G,B,][G,B,] E,[G,B,][G,B,] | [F,A,]2 z2 [F,,F,]2 |] %43
V:3
 x | x6 | x6 | x6 | x6 | x6 | x6 | x6 | x6 |: CFA CFA | CEB [CEB]2 [CEB] | CFc CFA | CEG [Ec]3 | %13
 [Af]2 [Af] [Ge]2 [Af] | [Bd]2 [Ac] [FA]2 F | [CA]2 [B,G] [A,F]2 [G,E] | [A,F]3- [A,F]2 x | %17
 x [CFA][CFA] x [CFA][CFA] | x [CEB][CEB] [CEB]2 [CEB] | x [CFc][CFc] x [CFA][CFA] | %20
 x [CEG][CEG] [CEG]2 z | x6 | x6 | x6 | x6 |[M:1/8] x |[M:6/8] x6 | x6 | x6 | x6 | x6 | x6 | x6 | %33
 x6 | x6 | x6 | x6 |1 x6 :|2 x6 || x6 | x6 | x6 | x6 |] %43

